Newaita-dark/actions/24/format-list-unordered.svg

<svg height="24" viewBox="0 0 24 24" width="24" xmlns="http://www.w3.org/2000/svg"><g fill="#e0e0e0"><path d="m21.335938 5.148438h-18.855469c-.273438 0-.496094-.222657-.496094-.496094v-.992188c0-.273437.222656-.496094.496094-.496094h18.855469c.273437 0 .496093.222657.496093.496094v.992188c0 .273437-.222656.496094-.496093.496094zm0 0"/><path d="m17.363281 21.523438h-14.882812c-.273438 0-.496094-.222657-.496094-.496094v-.996094c0-.273438.222656-.496094.496094-.496094h14.882812c.277344 0 .496094.222656.496094.496094v.996094c0 .273437-.21875.496094-.496094.496094zm0 0"/><path d="m17.363281 16.0625h-5.953125c-.273437 0-.496094-.21875-.496094-.496094v-.992187c0-.273438.222657-.496094.496094-.496094h5.953125c.277344 0 .496094.222656.496094.496094v.992187c0 .277344-.21875.496094-.496094.496094zm0 0"/><path d="m21.335938 10.605469h-14.886719c-.273438 0-.496094-.222657-.496094-.496094v-.992187c0-.273438.222656-.496094.496094-.496094h14.886719c.273437 0 .496093.222656.496093.496094v.992187c0 .273437-.222656.496094-.496093.496094zm0 0"/></g></svg>

<?xml version="1.0" encoding="UTF-8"?>
<svg xmlns="http://www.w3.org/2000/svg" xmlns:xlink="http://www.w3.org/1999/xlink" width="24px" height="24px" viewBox="0 0 24 24" version="1.1">
<g id="surface1">
<path style=" stroke:none;fill-rule:nonzero;fill:rgb(87.843138%,87.843138%,87.843138%);fill-opacity:1;" d="M 21.335938 5.148438 L 2.480469 5.148438 C 2.207031 5.148438 1.984375 4.925781 1.984375 4.652344 L 1.984375 3.660156 C 1.984375 3.386719 2.207031 3.164062 2.480469 3.164062 L 21.335938 3.164062 C 21.609375 3.164062 21.832031 3.386719 21.832031 3.660156 L 21.832031 4.652344 C 21.832031 4.925781 21.609375 5.148438 21.335938 5.148438 Z M 21.335938 5.148438 "/>
<path style=" stroke:none;fill-rule:nonzero;fill:rgb(87.843138%,87.843138%,87.843138%);fill-opacity:1;" d="M 17.363281 21.523438 L 2.480469 21.523438 C 2.207031 21.523438 1.984375 21.300781 1.984375 21.027344 L 1.984375 20.03125 C 1.984375 19.757812 2.207031 19.535156 2.480469 19.535156 L 17.363281 19.535156 C 17.640625 19.535156 17.859375 19.757812 17.859375 20.03125 L 17.859375 21.027344 C 17.859375 21.300781 17.640625 21.523438 17.363281 21.523438 Z M 17.363281 21.523438 "/>
<path style=" stroke:none;fill-rule:nonzero;fill:rgb(87.843138%,87.843138%,87.843138%);fill-opacity:1;" d="M 17.363281 16.0625 L 11.410156 16.0625 C 11.136719 16.0625 10.914062 15.84375 10.914062 15.566406 L 10.914062 14.574219 C 10.914062 14.300781 11.136719 14.078125 11.410156 14.078125 L 17.363281 14.078125 C 17.640625 14.078125 17.859375 14.300781 17.859375 14.574219 L 17.859375 15.566406 C 17.859375 15.84375 17.640625 16.0625 17.363281 16.0625 Z M 17.363281 16.0625 "/>
<path style=" stroke:none;fill-rule:nonzero;fill:rgb(87.843138%,87.843138%,87.843138%);fill-opacity:1;" d="M 21.335938 10.605469 L 6.449219 10.605469 C 6.175781 10.605469 5.953125 10.382812 5.953125 10.109375 L 5.953125 9.117188 C 5.953125 8.84375 6.175781 8.621094 6.449219 8.621094 L 21.335938 8.621094 C 21.609375 8.621094 21.832031 8.84375 21.832031 9.117188 L 21.832031 10.109375 C 21.832031 10.382812 21.609375 10.605469 21.335938 10.605469 Z M 21.335938 10.605469 "/>
</g>
</svg>
